X:611
T:The House o'Duncan
S:Bruce & Emmett's Drummers and Fifers Guide (1862), p. 61
M:6/8
L:1/8
Q:1/8=270
K:D
%%MIDI program 72
%%MIDI transpose 8
%%MIDI ratio 3 1
F|E>FE G>FE|A>GF G>FE|D>ED D>FA|dcB AFD|E>FE G2A|B>GE G2A|(3(B/c/d/)B2 A>^GA|B>=GE E2::
e/f/|g>ab efe|g>ab e2e|f>ga d(ed)|f>ga d2d|e>fg f>ga|g>ab e>fg|e>dB A>^GA|B>=GE E2:|
